X: 151
T:Gallopade. CJF.151
M:2/4
L:1/8
Q:200
S:C.J.Fox MS, 1829/33, Beverley,E.Yorks.
R:Misc.
O:England
A:East Yorkshire
B:Kidson Coll.Mitchell Lib.M1805
N:The final note should be a quaver to scan properly. - PJH.
Z:vmp.P J Headford 2000
K:D
"f"D|GD/G/ BG/B/|dB/d/ gB|d^c=cA|edBD|!
GD/G/ BG/B/|dB/d/ gB|d^c=cA|G3:|!
|:B|d^c=cA|edBG|d^c=cA|edBD|!
GD/G/ BG/B/|dB/d/ gd|dcAF|G2g2:|]
